X:29
T:Polska från Uppland
T:Svenska Folkdansar H1 nr 29
O:Uppland
B:Traditioner av Svenska Folkdansar Häfte 1, nr 29
R:Polska
Z:Nils L
N:Landskapsbeteckningen i originalnoterna är svårtydd.
U:I=invertedturn
M:3/4
L:1/8
K:Am
(G/ | A>)B c2 A>B | Ic>d e2 zz/e/ | a>d e2 c>d   | .e.e (d2c)z/(^G/ |
      A>)B c2 A>B | Ic>d e2 zz/e/ | a>d e2 (c>d) | .e.e (d2c)z/e/ |
a>d e2 c>d | ee (d2 c)z/B/ | (d>B) c2 B>A | (d>B) c2 B>A | (B>^G) A2 zz/ |]

